X:78
T:Kerry
Z: id:dc-jig-156
M:6/8
L:1/8
K:A Dorian
B|cBA eBd|cAA A2B|cBA efg|dBG G2B|!
cBA eBd|cea e2d|cBA GAB|cAA A2:|!
e|aeg fdB|cAA A2B|cBA efg|dBG G2e|!
[1 aeg fdB|cAA e2d|cBA GAB|cAA A2:|!
[2 aeg fdB|ecA BGE|Ace dBG|EFG A2|!

